assets/icons/feedback.svg

<svg xmlns="http://www.w3.org/2000/svg" width="522" height="522" viewBox="0 0 522 522"><path d="M32.184 43.562C21.251 46.504 8.842 56.674 3.258 67.267L.5 72.5.241 293.299c-.182 155.719.058 221.39.814 222.804 2.868 5.358 15.27 7.903 21.745 4.462 1.485-.79 26.098-24.865 54.696-53.5L129.493 415H285.59c173.253 0 160.357.478 171.153-6.337 22.128-13.97 22.244-14.626 22.251-126.105l.006-88.942 17.479-17.651c38.097-38.471 31.45-84.982-12.979-90.809-4.386-.575-5.034-.963-5.274-3.156-1.942-17.752-16.142-33.878-33.906-38.505-8.455-2.202-403.941-2.138-412.136.067M43.5 75.216c-5.083 1.811-8.65 4.904-10.595 9.185-1.794 3.95-1.862 10.933-1.883 192.571L31 465.444l40.75-40.589c33.483-33.351 41.352-40.702 44.125-41.222 1.856-.348 73.898-.633 160.093-.633h156.717l4.383-2.318c3.205-1.694 5.062-3.636 6.907-7.222l2.525-4.904.277-71.528.277-71.528-35.86 35.828-35.86 35.828-29.417 5.991c-53.346 10.866-55.548 7.82-40.413-55.897l.534-2.25h-93.394c-51.367 0-94.852-.292-96.634-.648-11.11-2.222-14.756-18.841-6.045-27.553l3.8-3.799h212.713l60.011-59.977L446.5 93.046l-.717-4.135c-.855-4.93-4.67-10.248-9.085-12.662-3.876-2.12-387.32-3.127-393.198-1.033m427 43.693c-2.2 1.026-6.691 4.622-9.981 7.991l-5.981 6.125 9.219 9.218 9.218 9.219 6.129-5.981c10.451-10.199 11.967-17.224 5.123-23.752-5.004-4.774-8.15-5.42-13.727-2.82m-360.535 33.89c-8.711 8.712-5.065 25.331 6.045 27.553 8.663 1.733 207.394.693 210.97-1.104 10.186-5.117 11.112-22.371 1.538-28.645-2.207-1.445-12.882-1.603-108.6-1.603H113.765zm274.857 49.951-45.67 45.75-2.156 10.836c-2.612 13.125-3.487 12.263 9.776 9.621l10.964-2.185 45.87-45.878 45.869-45.877-8.967-9.009c-4.931-4.954-9.203-9.008-9.491-9.008s-21.077 20.587-46.195 45.75m-274.857 78.049c-8.711 8.712-5.065 25.331 6.045 27.553 6.982 1.396 136.849.734 140.319-.716 9.798-4.094 12.396-18.911 4.671-26.636l-4-4H113.765z" fill="#040404" fill-rule="evenodd"/></svg>

<svg xmlns="http://www.w3.org/2000/svg" width="522" height="522" viewBox="0 0 522 522" version="1.1"><path d="" stroke="none" fill="#080404" fill-rule="evenodd"/><path d="M 32.184 43.562 C 21.251 46.504, 8.842 56.674, 3.258 67.267 L 0.500 72.500 0.241 293.299 C 0.059 449.018, 0.299 514.689, 1.055 516.103 C 3.923 521.461, 16.325 524.006, 22.800 520.565 C 24.285 519.775, 48.898 495.700, 77.496 467.065 L 129.493 415 285.590 415 C 458.843 415, 445.947 415.478, 456.743 408.663 C 478.871 394.693, 478.987 394.037, 478.994 282.558 L 479 193.616 496.479 175.965 C 534.576 137.494, 527.929 90.983, 483.500 85.156 C 479.114 84.581, 478.466 84.193, 478.226 82 C 476.284 64.248, 462.084 48.122, 444.320 43.495 C 435.865 41.293, 40.379 41.357, 32.184 43.562 M 43.500 75.216 C 38.417 77.027, 34.850 80.120, 32.905 84.401 C 31.111 88.351, 31.043 95.334, 31.022 276.972 L 31 465.444 71.750 424.855 C 105.233 391.504, 113.102 384.153, 115.875 383.633 C 117.731 383.285, 189.773 383, 275.968 383 L 432.685 383 437.068 380.682 C 440.273 378.988, 442.130 377.046, 443.975 373.460 L 446.500 368.556 446.777 297.028 L 447.054 225.500 411.194 261.328 L 375.334 297.156 345.917 303.147 C 292.571 314.013, 290.369 310.967, 305.504 247.250 L 306.038 245 212.644 245 C 161.277 245, 117.792 244.708, 116.010 244.352 C 104.900 242.130, 101.254 225.511, 109.965 216.799 L 113.765 213 220.121 213 L 326.478 213 386.489 153.023 L 446.500 93.046 445.783 88.911 C 444.928 83.981, 441.113 78.663, 436.698 76.249 C 432.822 74.129, 49.378 73.122, 43.500 75.216 M 470.500 118.909 C 468.300 119.935, 463.809 123.531, 460.519 126.900 L 454.538 133.025 463.757 142.243 L 472.975 151.462 479.104 145.481 C 489.555 135.282, 491.071 128.257, 484.227 121.729 C 479.223 116.955, 476.077 116.309, 470.500 118.909 M 109.965 152.799 C 101.254 161.511, 104.900 178.130, 116.010 180.352 C 124.673 182.085, 323.404 181.045, 326.980 179.248 C 337.166 174.131, 338.092 156.877, 328.518 150.603 C 326.311 149.158, 315.636 149, 219.918 149 L 113.765 149 109.965 152.799 M 384.822 202.750 L 339.152 248.500 336.996 259.336 C 334.384 272.461, 333.509 271.599, 346.772 268.957 L 357.736 266.772 403.606 220.894 L 449.475 175.017 440.508 166.008 C 435.577 161.054, 431.305 157, 431.017 157 C 430.728 157, 409.940 177.587, 384.822 202.750 M 109.965 280.799 C 101.254 289.511, 104.900 306.130, 116.010 308.352 C 122.992 309.748, 252.859 309.086, 256.329 307.636 C 266.127 303.542, 268.725 288.725, 261 281 L 257 277 185.382 277 L 113.765 277 109.965 280.799" stroke="none" fill="#040404" fill-rule="evenodd"/></svg>
